svg/laptop_windows_alt.svg

<svg xmlns="http://www.w3.org/2000/svg" viewBox="0 0 24 24"><path d="M3 4h18a1 1 0 0 1 1 1v11a1 1 0 0 1-1 1h1l2 3v1H0v-1l2-3h1a1 1 0 0 1-1-1V5a1 1 0 0 1 1-1m1 2v9h16V6z"/></svg>

<?xml version="1.0" encoding="UTF-8"?><!DOCTYPE svg PUBLIC "-//W3C//DTD SVG 1.1//EN" "http://www.w3.org/Graphics/SVG/1.1/DTD/svg11.dtd"><svg xmlns="http://www.w3.org/2000/svg" xmlns:xlink="http://www.w3.org/1999/xlink" version="1.1" id="mdi-laptop-windows" width="24" height="24" viewBox="0 0 24 24"><path d="M3,4H21A1,1 0 0,1 22,5V16A1,1 0 0,1 21,17H22L24,20V21H0V20L2,17H3A1,1 0 0,1 2,16V5A1,1 0 0,1 3,4M4,6V15H20V6H4Z" /></svg>
